X: 435
T:Shandon Bells
M:6/8
L:1/8
S:Kevin Briggs, via EF
K:D
B|:"D"AFD DFA|"D"ded "A"cBA|"Em"BGE EGA|"Em"~B3 "A7"Bcd|
"D"AFD DFA|"D"ded "A"cBA|"Em"Bcd "A7"ecA|[1~"D"d3 dcB:|[2~"D"d3 d2 g||
|:~"D"f3 ded|"D"faa {b}afd|"A"cAA eAA|"A"cAc "A7"efg|
"D"f2d ded|"D"faa {b}afd|"G"Bcd "A7"ecA|~"D"d3 d2 z:|


